X: 78
T: Bai ling niao
%%abc-version 2.0
%%abcx-abcm2ps-target-version 5.9.1 (29 Sep 2008)
%%abc-creator hum2abc beta
%%abcx-conversion-date 2013/10/02 07:44:27
%%abc-edited-by Helmut Schaffrath
%%humdrum-veritas 3526008468
%%humdrum-veritas-data 283545378
%%continueall 1
%%barnumbers 0
L: 1/16
M: 2/4
K: C
z2 d> d d g f a [I:setbarnb 1]| 
g f e d d ^c e d- | 
d A/ A/ A B d c e d- | 
d c/ c/ B/ A/ c g2 f d- | 
d c B A c G3- | 
G8 | 
z G ^F G A c B/ c/ A- | 
A f/ f/ e d d> B c A- | 
A D E F G> c B/ c/ A- | 
A F E> CD4 | 
D G ^F G A c B/ c/ A- | 
A f e d d> B c A- | 
A D E F G> c B/ c/ A | 
G F E CD4 | 
D G ^F G A c B/ c/ A- | 
A f e> d d> B c A- | 
A D E F G c B/ c/ A | 
G F E> CD4 |]  



